!!!SOCIAL_FUNCTION:	songs of war
!!!PDT:	1913
!!!OTL: No_16_Dance_of_the_Dog_Feast.krn
!!!REG: Great_Lakes
!!!LANG: Non-Tone
!!!LING_GROUP: Algonquin
**kern	**kern
*staff2	*staff1
=1-	=1-
*clefF4	*clefF4
*k[b-e-]	*k[b-e-]
*M2/4	*M2/4
4GG^/	8f\L
.	8d\J
4GG^/	8c\L
.	16d\L
.	16c\JJ
=2||	=2||
*M4/4	*M4/4
4GG^/	8B-\L
.	8B-\J
4GG^/	2B-\
4GG^/	.
4GG^/	4B-\
=3	=3
1r	8c\L
.	8c\J
.	2.c\
=4||	=4||
*M2/4	*M2/4
2r	8f\L
.	8d\J
.	8c\L
.	16d\L
.	16c\JJ
=5||	=5||
*M4/4	*M4/4
1r	8B-\L
.	8B-\J
.	2B-\
.	4G\
=6	=6
1r	8B-\L
.	8B-\J
.	2.B-\
=7||	=7||
*M2/4	*M2/4
2r	8d\L
.	8d\J
.	dq/
.	8c\L
.	16d\L
.	16c\JJ
=8||	=8||
*M4/4	*M4/4
1r	8B-\L
.	8B-\J
.	2B-\
.	8.B-\L
.	16G\Jk
=9	=9
1r	8F\L
.	8F\
.	8.F\
.	16D\Jk
.	8F\L
.	8F\J
.	4F\
=10||	=10||
*M2/4	*M2/4
2r	8.B-\L
.	16G\Jk
.	8.G\L
.	16G\Jk
=11||	=11||
*M4/4	*M4/4
1r	8F\L
.	8F\J
.	2F\
.	8.F\L
.	16D\Jk
=12||	=12||
*M2/4	*M2/4
2r	8C/L
.	8C/J
.	8.D/L
.	16C/Jk
=13||	=13||
*M4/4	*M4/4
1r	8.BB-/L
.	16BB-/Jk
.	2.BB-/
==	==
*-	*-
